X:1
T:Lily of Laguna
T:Lily of Laguna
T:Bing Crosby
C:Bing Crosby
L:1/8
Q:1/4=120
M:4/4
K:E
V:1 treble nm="Piano" snm="Pno."
V:1
 z G |"E" G>G =G>^G E2 F2 |"C#m" C>C- C z z4 |"E" C>C- C2 C3 B, |"B" C>C- C2 z2 A2 | %5
w: There|used to be a gal names|Li- ly, *|Li- ly * of La-|gu- na, * She|
"F#m" A>A G>A ^E2 F2 |"B" C>C- C2 z2 B,>B, |"B7" C3 B,/C/- C2 C>B, |"E" G,>G,- G, z z2 z G | %9
w: met a sai- lor boy names|Wil- ly, * and they|sailed a- way * on a|schoo- ner, * Now|
"C#" F2 =G2 ^G3 G |"F#" G>C B,>A,- A,2- A,3/2 z/ |"F#m" C>C D>D E2 ^E2 |"B" F>D C>B,- B,3/2 z/ z2 | %13
w: all night long and|most of the day, * *|You can hear a lu- cky|Lad- * dy say, *|
"E" G,4 B,4 | C>B, G,2- G,>G, A,>^A, |"E7" B,4"C#7" G4 |"F#" F>E C4 z2 |"B" F2- F>C F2- F>C | %18
w: She's my|la- dy love, * she is my|dove, my|ba- by love,|she's * no girl * for|
 F/F/ F2 z/ C/ F4 |"B7" B,>^B, C>=D ^D2 B2 | A2 C2"E" B,4 | G4 E3 z/ B,/ | %22
w: sit- ting down to dream,|she's the on- ly queen La-|gu- na knows,|I know she|
"B" D z D2- D z/ D/ C>B, |"B7" D z D2- D z/ D/ C>B, |"E" C2 B,2- B, z/ G,/ A,>^A, | %25
w: likes me, * I know she|likes me, * be- cause she|said so, * she is my|
"C#" B, B3 A3 G |"F#" F>E C2- C z/ C/ D>E |"F#m" G/ F3"B" D/- D2- D/ z B,/ |"E" E8 |] %29
w: Li- ly of La-|gu- * na, * she is my|Li- ly and * * my|rose.|

